media/kauf_bkt/crossing/crossing_un.svg

<svg xmlns:inkscape="http://www.inkscape.org/namespaces/inkscape" xmlns:sodipodi="http://sodipodi.sourceforge.net/DTD/sodipodi-0.dtd" xmlns="http://www.w3.org/2000/svg" xmlns:svg="http://www.w3.org/2000/svg" xmlns:vectornator="http://vectornator.io" stroke-miterlimit="10" style="clip-rule:evenodd;fill-rule:nonzero;stroke-linecap:round;stroke-linejoin:round" version="1.1" viewBox="0 0 530 527.18835" xml:space="preserve" id="svg5" sodipodi:docname="crossing_un.svg" inkscape:version="1.3 (0e150ed6c4, 2023-07-21)" class="">

    <sodipodi:namedview id="namedview5" pagecolor="#ffffff" bordercolor="#666666" borderopacity="1.0" inkscape:showpageshadow="2" inkscape:pageopacity="0.0" inkscape:pagecheckerboard="0" inkscape:deskcolor="#d1d1d1" inkscape:zoom="1.6604971" inkscape:cx="220.71703" inkscape:cy="262.27086" inkscape:window-width="1920" inkscape:window-height="1120" inkscape:window-x="-11" inkscape:window-y="-11" inkscape:window-maximized="1" inkscape:current-layer="svg5"/>
<defs id="defs1">

        <inkscape:path-effect effect="knot" id="path-effect5" is_visible="true" lpeversion="1" switcher_size="15" interruption_width="5.4" prop_to_stroke_width="true" add_stroke_width="inkscape_1.0_and_up" both="false" inverse_width="false" add_other_stroke_width="inkscape_1.0_and_up" crossing_points_vector="251.31389 | 249.11416 | 0 | 0 | 0 | 1 | 0.50330974 | 4.5000939 | -1"/>

    </defs>



<g clip-path="url(#ArtboardFrame_60)" id="Layer-2" vectornator:layerName="Layer 2" transform="translate(15,13.353374)">
<clipPath id="ClipPath_2">


            <path d="M 450.763,-0.268002 240.638,199.31 291.75,253.261 260.899,300.621 200.396,239.551 -30.7388,480.423 72.9236,631.959 518.627,613.32 610.18,500.386 605.246,189.545 594.281,-13.2963 530.139,-73.6005 Z" id="path4"/>


        </clipPath>
<g clip-path="url(#ClipPath_2)" id="g5">

</g>


        <path d="M 193.6801,192.194 -13.511338,-12.431955 -545.41558,-565.79628 C -312.37086,-241.99562 -789.86369,1155.7733 -647.0112,1030.0429 -490.77662,892.53434 -128.32579,628.7855 -15,513.83498 L 514.12526,-12.125079 C 613.41465,-109.02234 1460.4002,-944.95954 1521.0209,-911.89375 1688.2837,-820.65962 1751.2134,695.29353 1408.512,1095.3106 1213.3734,1323.0855 603.46696,622.54001 516.23861,510.75853 L 308.94769,306.03432" fill="none" opacity="1" class="" stroke="#FF851B" stroke-linecap="butt" stroke-linejoin="round" stroke-width="30" id="path5" style="clip-rule:evenodd;fill-rule:nonzero;stroke-linecap:round;stroke-linejoin:round" sodipodi:nodetypes="ccsscccsc" inkscape:path-effect="#path-effect5" inkscape:original-d="M -15,513.83498 514.12526,-12.125079 C 613.41465,-109.02234 1460.4002,-944.95954 1521.0209,-911.89375 1688.2837,-820.65962 1751.2134,695.29353 1408.512,1095.3106 1213.3734,1323.0855 603.46696,622.54001 516.23861,510.75853 L -13.511338,-12.431955 -545.41558,-565.79628 C -312.37086,-241.99562 -789.86369,1155.7733 -647.0112,1030.0429 -490.77662,892.53434 -128.32579,628.7855 -15,513.83498 Z"/>


    </g>


</svg>

<svg xmlns="http://www.w3.org/2000/svg" xmlns:vectornator="http://vectornator.io" xml:space="preserve" stroke-miterlimit="10" style="clip-rule:evenodd;fill-rule:nonzero;stroke-linecap:round;stroke-linejoin:round" viewBox="0 0 530 527.188"><g vectornator:layerName="Layer 2" clip-path="url(#ArtboardFrame_60)" transform="translate(15 13.353)"><clipPath id="a"><path d="M450.763-.268 240.638 199.31l51.112 53.951-30.851 47.36-60.503-61.07-231.135 240.872L72.924 631.959l445.703-18.639 91.553-112.934-4.934-310.841-10.965-202.841L530.139-73.6Z"/></clipPath><path fill="none" stroke="#FF851B" stroke-linecap="butt" stroke-width="30" d="M193.68 192.194-13.51-12.432l-531.905-553.364c233.045 323.8-244.448 1721.57-101.595 1595.839C-490.777 892.534-128.326 628.786-15 513.835l529.125-525.96c99.29-96.897 946.275-932.835 1006.896-899.769 167.263 91.234 230.192 1607.188-112.509 2007.205-195.139 227.775-805.045-472.771-892.273-584.552L308.948 306.034" style="clip-rule:evenodd;fill-rule:nonzero;stroke-linecap:round;stroke-linejoin:round"/></g></svg>
